X:35
T:Wind That Shakes the Barley, The
R:reel
E:7
I:speed 350
M:C|
K:D
|A2AB AFED|B2BA BcdB|~A3 B AFED|gfed BcdB|\
~A3B AFEF|DBBA BcdB|~A3B AFED|gfed Bcde||*
|~f3d ~g3e|~f3d Bcde|f2df gefg|afed Bcde|\
~f3d ~g3e|~f3d Bcd2|defg afbf|afed BcdB||**
<end>
<start>
